src/assets/images/logo-embrace.svg

<svg height="59" viewBox="0 0 238 59" width="238" xmlns="http://www.w3.org/2000/svg" xmlns:xlink="http://www.w3.org/1999/xlink"><mask id="a" fill="#fff"><path d="m.06.091h51.818v58.849h-51.818z" fill="none"/></mask><g fill="#38a2cf" fill-rule="evenodd"><path d="m83.614 23.733h-10.762v-1.83c0-4.532 2.048-5.447 5.316-5.447s5.446.959 5.446 5.447zm-5.446-10.937c-5.795 0-9.412 2.441-9.412 9.107v7.451c0 6.842 2.614 9.325 9.412 9.325 6.623 0 9.325-2.745 9.325-7.669h-4.009c0 2.614-1.656 3.834-5.316 3.834s-5.316-1.045-5.316-5.577v-1.917h14.728v-5.447c0-6.623-3.704-9.107-9.412-9.107z"/><path d="m118.648 12.622c-3.616 0-6.144 1.089-7.799 3.138-1.221-2.136-3.661-3.138-6.972-3.138-2.527 0-4.924.741-6.536 3.094l-.305-2.789h-3.486v25.49h4.183v-16.601c0-3.878 2.396-5.316 5.534-5.316 3.093 0 5.054.697 5.054 5.273v16.644h4.183v-15.338c0-4.531 1.918-6.492 5.621-6.492 3.007 0 4.968 1.525 4.968 5.273v16.557h4.182v-16.47c0-7.19-3.049-9.325-8.627-9.325"/><path d="m148.279 29.136c0 4.619-1.83 5.752-5.402 5.752-3.573 0-5.403-1.133-5.403-5.752l.043-6.753c.044-4.619 2.309-5.752 5.36-5.752 3.703 0 5.402 1.176 5.402 5.926zm-4.749-16.471c-2.963 0-5.01 1.09-6.013 2.572v-11.112h-4.183v25.011c0 6.929 2.658 9.717 9.543 9.717 6.884 0 9.542-2.788 9.542-9.717v-6.666c0-6.319-2.483-9.805-8.889-9.805z"/><path d="m161.832 15.28-.175-2.353h-3.791v25.534h4.14v-16.383c0-3.922 3.138-5.578 7.146-4.924v-4.227c-3.137-.654-6.057.436-7.32 2.353"/><path d="m180.09 34.67c-1.874 0-3.66-.653-3.835-2.658-.305-2.483 1.177-3.834 4.009-4.444 2.178-.479 4.706-.436 5.882-.436-.13 4.183-1.481 7.538-6.056 7.538zm1.264-22.005c-5.404 0-8.367 2.397-8.193 8.062h4.053c-.044-3.442 1.612-4.271 4.009-4.271 3.834 0 4.837 1.874 4.837 4.75v2.484c-2.005.043-4.14.087-6.145.392-5.228.741-8.278 3.965-7.843 8.454.305 3.005 1.743 6.099 7.582 6.099 3.094 0 5.577-1.786 6.492-3.66l.349 3.442h3.747v-17.211c0-6.188-3.311-8.541-8.888-8.541z"/><path d="m205.145 16.456c3.311 0 5.228.741 5.403 4.75l3.922-.044c-.262-6.536-3.66-8.54-9.325-8.54-5.883 0-9.543 2.527-9.543 9.281v7.233c0 6.929 2.919 9.717 9.543 9.717 6.623 0 9.237-2.353 9.325-9.063h-3.922c-.087 4.357-1.874 5.098-5.403 5.098-3.53 0-5.404-1.133-5.404-5.752v-7.233c0-4.618 1.917-5.447 5.404-5.447"/><path d="m223.272 21.903c0-4.532 2.048-5.447 5.317-5.447 3.267 0 5.446.959 5.446 5.447v1.83h-10.763zm14.728 5.447v-5.447c0-6.623-3.703-9.107-9.411-9.107-5.796 0-9.412 2.441-9.412 9.107v7.451c0 6.842 2.614 9.325 9.412 9.325 6.622 0 9.324-2.745 9.324-7.669h-4.009c0 2.614-1.655 3.834-5.315 3.834s-5.317-1.045-5.317-5.577v-1.917z"/><path d="m26.258 16.731c-3.268 0-5.316.915-5.316 5.447v1.83h10.763v-1.83c0-4.488-2.179-5.447-5.447-5.447" mask="url(#a)"/><path d="m35.67 27.625h-14.728v1.917c0 4.532 1.656 5.578 5.316 5.578s5.316-1.22 5.316-3.834h4.008c0 4.922-2.701 7.668-9.324 7.668-6.798 0-9.412-2.484-9.412-9.325v-7.451c0-6.666 3.616-9.107 9.412-9.107 5.708 0 9.412 2.484 9.412 9.107zm-9.731-27.534c-14.326 0-25.939 11.613-25.939 25.939 0 10.597 6.359 19.705 15.467 23.73l-.005.004.202.085c.128.056.257.109.386.163l21.349 8.988.001-9.7c8.576-4.231 14.478-13.06 14.478-23.27 0-14.326-11.613-25.939-25.939-25.939z" mask="url(#a)"/></g></svg>

<?xml version="1.0" encoding="UTF-8"?>
<svg width="238px" height="59px" viewBox="0 0 238 59" version="1.1" xmlns="http://www.w3.org/2000/svg" xmlns:xlink="http://www.w3.org/1999/xlink">
    <!-- Generator: Sketch 51.3 (57544) - http://www.bohemiancoding.com/sketch -->
    <title>Embrace SBS logo blauw</title>
    <desc>Created with Sketch.</desc>
    <defs>
        <polygon id="path-1" points="0.06 0.091 51.878 0.091 51.878 58.94 0.06 58.94"></polygon>
    </defs>
    <g id="Embrace-SBS-logo-blauw" stroke="none" stroke-width="1" fill="none" fill-rule="evenodd">
        <path d="M83.614,23.733 L72.852,23.733 L72.852,21.903 C72.852,17.371 74.9,16.456 78.168,16.456 C81.436,16.456 83.614,17.415 83.614,21.903 L83.614,23.733 Z M78.168,12.796 C72.373,12.796 68.756,15.237 68.756,21.903 L68.756,29.354 C68.756,36.196 71.37,38.679 78.168,38.679 C84.791,38.679 87.493,35.934 87.493,31.01 L83.484,31.01 C83.484,33.624 81.828,34.844 78.168,34.844 C74.508,34.844 72.852,33.799 72.852,29.267 L72.852,27.35 L87.58,27.35 L87.58,21.903 C87.58,15.28 83.876,12.796 78.168,12.796 Z" id="Fill-1" fill="#38A2CF"></path>
        <path d="M118.648,12.622 C115.032,12.622 112.504,13.711 110.849,15.76 C109.628,13.624 107.188,12.622 103.877,12.622 C101.35,12.622 98.953,13.363 97.341,15.716 L97.036,12.927 L93.55,12.927 L93.55,38.417 L97.733,38.417 L97.733,21.816 C97.733,17.938 100.129,16.5 103.267,16.5 C106.36,16.5 108.321,17.197 108.321,21.773 L108.321,38.417 L112.504,38.417 L112.504,23.079 C112.504,18.548 114.422,16.587 118.125,16.587 C121.132,16.587 123.093,18.112 123.093,21.86 L123.093,38.417 L127.275,38.417 L127.275,21.947 C127.275,14.757 124.226,12.622 118.648,12.622" id="Fill-2" fill="#38A2CF"></path>
        <path d="M148.279,29.136 C148.279,33.755 146.449,34.888 142.877,34.888 C139.304,34.888 137.474,33.755 137.474,29.136 L137.517,22.383 C137.561,17.764 139.826,16.631 142.877,16.631 C146.58,16.631 148.279,17.807 148.279,22.557 L148.279,29.136 Z M143.53,12.665 C140.567,12.665 138.52,13.755 137.517,15.237 L137.517,4.125 L133.334,4.125 L133.334,29.136 C133.334,36.065 135.992,38.853 142.877,38.853 C149.761,38.853 152.419,36.065 152.419,29.136 L152.419,22.47 C152.419,16.151 149.936,12.665 143.53,12.665 Z" id="Fill-3" fill="#38A2CF"></path>
        <path d="M161.832,15.28 L161.657,12.927 L157.866,12.927 L157.866,38.461 L162.006,38.461 L162.006,22.078 C162.006,18.156 165.144,16.5 169.152,17.154 L169.152,12.927 C166.015,12.273 163.095,13.363 161.832,15.28" id="Fill-4" fill="#38A2CF"></path>
        <path d="M180.09,34.67 C178.216,34.67 176.43,34.017 176.255,32.012 C175.95,29.529 177.432,28.178 180.264,27.568 C182.442,27.089 184.97,27.132 186.146,27.132 C186.016,31.315 184.665,34.67 180.09,34.67 Z M181.354,12.665 C175.95,12.665 172.987,15.062 173.161,20.727 L177.214,20.727 C177.17,17.285 178.826,16.456 181.223,16.456 C185.057,16.456 186.06,18.33 186.06,21.206 L186.06,23.69 C184.055,23.733 181.92,23.777 179.915,24.082 C174.687,24.823 171.637,28.047 172.072,32.536 C172.377,35.541 173.815,38.635 179.654,38.635 C182.748,38.635 185.231,36.849 186.146,34.975 L186.495,38.417 L190.242,38.417 L190.242,21.206 C190.242,15.018 186.931,12.665 181.354,12.665 Z" id="Fill-5" fill="#38A2CF"></path>
        <path d="M205.145,16.456 C208.456,16.456 210.373,17.197 210.548,21.206 L214.47,21.162 C214.208,14.626 210.81,12.622 205.145,12.622 C199.262,12.622 195.602,15.149 195.602,21.903 L195.602,29.136 C195.602,36.065 198.521,38.853 205.145,38.853 C211.768,38.853 214.382,36.5 214.47,29.79 L210.548,29.79 C210.461,34.147 208.674,34.888 205.145,34.888 C201.615,34.888 199.741,33.755 199.741,29.136 L199.741,21.903 C199.741,17.285 201.658,16.456 205.145,16.456" id="Fill-6" fill="#38A2CF"></path>
        <path d="M223.272,21.903 C223.272,17.371 225.32,16.456 228.589,16.456 C231.856,16.456 234.035,17.415 234.035,21.903 L234.035,23.733 L223.272,23.733 L223.272,21.903 Z M238,27.35 L238,21.903 C238,15.28 234.297,12.796 228.589,12.796 C222.793,12.796 219.177,15.237 219.177,21.903 L219.177,29.354 C219.177,36.196 221.791,38.679 228.589,38.679 C235.211,38.679 237.913,35.934 237.913,31.01 L233.904,31.01 C233.904,33.624 232.249,34.844 228.589,34.844 C224.929,34.844 223.272,33.799 223.272,29.267 L223.272,27.35 L238,27.35 Z" id="Fill-7" fill="#38A2CF"></path>
        <g id="Group-11">
            <mask id="mask-2" fill="white">
                <use xlink:href="#path-1"></use>
            </mask>
            <g id="Clip-9"></g>
            <path d="M26.258,16.731 C22.99,16.731 20.942,17.646 20.942,22.178 L20.942,24.008 L31.705,24.008 L31.705,22.178 C31.705,17.69 29.526,16.731 26.258,16.731" id="Fill-8" fill="#38A2CF" mask="url(#mask-2)"></path>
            <path d="M35.67,27.625 L20.942,27.625 L20.942,29.542 C20.942,34.074 22.598,35.12 26.258,35.12 C29.918,35.12 31.574,33.9 31.574,31.286 L35.582,31.286 C35.582,36.208 32.881,38.954 26.258,38.954 C19.46,38.954 16.846,36.47 16.846,29.629 L16.846,22.178 C16.846,15.512 20.462,13.071 26.258,13.071 C31.966,13.071 35.67,15.555 35.67,22.178 L35.67,27.625 Z M25.939,0.091 C11.613,0.091 0,11.704 0,26.03 C0,36.627 6.359,45.735 15.467,49.76 L15.462,49.764 L15.664,49.849 C15.792,49.905 15.921,49.958 16.05,50.012 L37.399,59 L37.4,49.3 C45.976,45.069 51.878,36.24 51.878,26.03 C51.878,11.704 40.265,0.091 25.939,0.091 Z" id="Fill-10" fill="#38A2CF" mask="url(#mask-2)"></path>
        </g>
    </g>
</svg>
